X:1847
T:Majas brudvals
C:Fredrik Lindh
R:Vals
D:"På Tre Man Hand", Amigo 1993
Z:ABC-transkribering av Erik Ronström 2010
M:3/4
L:1/8
K:A
|:EA c2 cB-|BA Bd c2|e=g- gf df|e2 Bd c2|
EA c2 ce-|ed Bd c2|Bd cA BG|1 EG A2 cA:|2 EG A2 ce|
|:a2 gb a2|g2 fa g2|fc fa gf|fe Bd c2|
Bc de fa|gb a2 e2-|ef- fd cA|1 BG A2 ce:|2 BG A4|]
(:musicend:)
(:music:)
